searx/static/themes/simple/img/favicon.svg

<svg xmlns="http://www.w3.org/2000/svg" width="854" height="941" fill="none" viewBox="0 0 854 941"><path fill="#fff" fill-rule="evenodd" d="M597 854c5.447 11.251 35.199 42.894 49.5 50 .317-7.887 1.585-19.419 3-23.5 5.599 7.616 61.893 49.853 78.5 57-3.902-14.321-7.877-38.417-8-45 24.618 18.068 53.437 34.338 95 48.5-8.5-57.5-49-106-76-132.5 9.589 4.147 22.386 9.075 39.5 11.5-4.5-7-29.981-36.355-40.781-47.288C732.653 767.779 730 761 730 761c30.851 11.211 87.433 25.065 123.986 23.979C767.474 719.471 682.256 612.276 653 573c9.733 3.2 29 7.333 29 6-37.486-39.479-134.507-161.049-159.747-193.888C396.5 221.5 294.5 264 294.5 192c0-83.5 189-105.5 239-104.5C488.5 43 459 23.73 334 23.73 312.533 12.13 303.5 0 242.5 0c-69.5 0-137 35.5-167 89.5 8-4 16-8 26.5-8.5-18 19.5-78 113-82.5 141 8.5-7 18-17 29.5-22C21.853 249 0 323.5 0 376c9.5-12.5 17.5-24.5 25.453-35.021C15.319 438.5 34.5 511.5 89 564.5c-3.5-15-8-68-6-78.5 21.542 65.162 55.468 133.397 109.5 188 0-22-.5-28.5-2-39.5 28 32 76.5 79 120 101-12.5-19.5-20.5-36.5-25-52 38 31.745 71 57.5 96.5 107.5 0-52 22.5-77.5 45-77.5 13 0 30.587 15.015 46.5 29C490 757 507.5 784 515 801c9.382 21.266 18.5 31 27.5 39 1.5-3 3-7.5 7.5-14 8.914 11.888 25.674 37.199 38.5 48 2-6 4.5-15 8.5-20" clip-rule="evenodd"/><path fill="#fff" d="M504 101v11h2v-11h4.5v-2h-11v2zM514.5 112h-2V99h2l4.5 7 5-7h2v13h-2v-8.5l-5 6-4.5-6z"/></svg>

<svg width="854" height="941" viewBox="0 0 854 941" fill="none" xmlns="http://www.w3.org/2000/svg">
<path fill-rule="evenodd" clip-rule="evenodd" d="M597 854C602.447 865.251 632.199 896.894 646.5 904C646.817 896.113 648.085 884.581 649.5 880.5C655.099 888.116 711.393 930.353 728 937.5C724.098 923.179 720.123 899.083 720 892.5C744.618 910.568 773.437 926.838 815 941C806.5 883.5 766 835 739 808.5C748.589 812.647 761.386 817.575 778.5 820C774 813 748.519 783.645 737.719 772.712C732.653 767.779 730 761 730 761C760.851 772.211 817.433 786.065 853.986 784.979C767.474 719.471 682.256 612.276 653 573C662.733 576.2 682 580.333 682 579C644.514 539.521 547.493 417.951 522.253 385.112C396.5 221.5 294.5 264 294.5 192C294.5 108.5 483.5 86.5001 533.5 87.5001C488.5 43 459 23.7308 334 23.7308C312.533 12.1308 303.5 0 242.5 0C173 0 105.5 35.5 75.5 89.5C83.5 85.5 91.5 81.5 102 81C84 100.5 24 194 19.5 222C28 215 37.5 205 49 200C21.8528 249 0 323.5 0 376C9.5 363.5 17.5 351.5 25.4528 340.979C15.3194 438.5 34.5 511.5 89 564.5C85.5 549.5 81 496.5 83 486C104.542 551.162 138.468 619.397 192.5 674C192.5 652 192 645.5 190.5 634.5C218.5 666.5 267 713.5 310.5 735.5C298 716 290 699 285.5 683.5C323.5 715.245 356.5 741 382 791C382 739 404.5 713.5 427 713.5C440 713.5 457.587 728.515 473.5 742.5C490 757 507.5 784 515 801C524.382 822.266 533.5 832 542.5 840C544 837 545.5 832.5 550 826C558.914 837.888 575.674 863.199 588.5 874C590.5 868 593 859 597 854Z" fill="white"/>
<path d="M503.5 102V107H505.5V102H508V100H501V102H503.5Z" fill="white"/>
<path d="M511 107H509V100H511L513.5 103L516 100H518V107H516V103.5L513.5 106.5L511 103.5V107Z" fill="white"/>
</svg>
